flaticon/productivity/menu.svg

<svg xmlns="http://www.w3.org/2000/svg" width="32" height="32" viewBox="0 0 24 24">
    <path d="M2.8125 5.683594C1.261719 5.683594 0 4.40625 0 2.839844 0 1.273438 1.261719 0 2.8125 0 4.363281 0 5.628906 1.273438 5.628906 2.839844 5.628906 4.40625 4.363281 5.683594 2.8125 5.683594zM2.8125 1.019531C1.820312 1.019531 1.011719 1.835938 1.011719 2.839844 1.011719 3.84375 1.820312 4.660156 2.8125 4.660156 3.808594 4.660156 4.617188 3.84375 4.617188 2.839844 4.617188 1.835938 3.808594 1.019531 2.8125 1.019531zM8.9375 5.683594C7.386719 5.683594 6.125 4.40625 6.125 2.839844 6.125 1.273438 7.386719 0 8.9375 0 10.488281 0 11.75 1.273438 11.75 2.839844 11.75 4.40625 10.488281 5.683594 8.9375 5.683594zM8.9375 1.019531C7.945312 1.019531 7.136719 1.835938 7.136719 2.839844 7.136719 3.84375 7.945312 4.660156 8.9375 4.660156 9.933594 4.660156 10.742188 3.84375 10.742188 2.839844 10.742188 1.835938 9.933594 1.019531 8.9375 1.019531zM15.0625 5.683594C13.511719 5.683594 12.246094 4.40625 12.246094 2.839844 12.25 1.273438 13.511719 0 15.0625 0 16.613281 0 17.875 1.273438 17.875 2.839844 17.875 4.40625 16.613281 5.683594 15.0625 5.683594zM15.0625 1.019531C14.066406 1.019531 13.257812 1.835938 13.257812 2.839844 13.257812 3.84375 14.066406 4.660156 15.0625 4.660156 16.054688 4.660156 16.863281 3.84375 16.863281 2.839844 16.863281 1.835938 16.054688 1.019531 15.0625 1.019531zM21.1875 5.683594C19.632812 5.683594 18.371094 4.40625 18.371094 2.839844 18.371094 1.273438 19.632812 0 21.1875 0 22.738281 0 24 1.273438 24 2.839844 24 4.40625 22.738281 5.683594 21.1875 5.683594zM21.1875 1.019531C20.191406 1.019531 19.382812 1.835938 19.382812 2.839844 19.382812 3.84375 20.191406 4.660156 21.1875 4.660156 22.179688 4.660156 22.988281 3.84375 22.988281 2.839844 22.988281 1.835938 22.179688 1.019531 21.1875 1.019531zM12 14.839844C10.449219 14.839844 9.1875 13.566406 9.1875 12 9.1875 10.433594 10.449219 9.160156 12 9.160156 13.550781 9.160156 14.8125 10.433594 14.8125 12 14.8125 13.566406 13.550781 14.839844 12 14.839844zM12 10.179688C11.007812 10.179688 10.199219 10.996094 10.199219 12 10.199219 13.003906 11.007812 13.820312 12 13.820312 12.992188 13.820312 13.800781 13.003906 13.800781 12 13.800781 10.996094 12.992188 10.179688 12 10.179688zM21.1875 11.789062C19.632812 11.789062 18.371094 10.511719 18.371094 8.945312 18.371094 7.378906 19.632812 6.105469 21.1875 6.105469 22.738281 6.105469 24 7.378906 24 8.945312 24 10.511719 22.738281 11.789062 21.1875 11.789062zM21.1875 7.128906C20.191406 7.128906 19.382812 7.941406 19.382812 8.945312 19.382812 9.949219 20.191406 10.765625 21.1875 10.765625 22.179688 10.765625 22.988281 9.949219 22.988281 8.945312 22.988281 7.941406 22.179688 7.128906 21.1875 7.128906zM21.1875 17.894531C19.632812 17.894531 18.371094 16.621094 18.371094 15.054688 18.371094 13.488281 19.632812 12.210938 21.1875 12.210938 22.738281 12.210938 24 13.488281 24 15.054688 24 16.621094 22.738281 17.894531 21.1875 17.894531zM21.1875 13.234375C20.191406 13.234375 19.382812 14.050781 19.382812 15.054688 19.382812 16.058594 20.191406 16.871094 21.1875 16.871094 22.179688 16.871094 22.988281 16.058594 22.988281 15.054688 22.988281 14.050781 22.179688 13.234375 21.1875 13.234375zM21.1875 24C19.632812 24 18.371094 22.726562 18.371094 21.160156 18.371094 19.59375 19.632812 18.316406 21.1875 18.316406 22.738281 18.316406 24 19.59375 24 21.160156 24 22.726562 22.738281 24 21.1875 24zM21.1875 19.339844C20.191406 19.339844 19.382812 20.15625 19.382812 21.160156 19.382812 22.164062 20.191406 22.980469 21.1875 22.980469 22.179688 22.980469 22.988281 22.164062 22.988281 21.160156 22.988281 20.15625 22.179688 19.339844 21.1875 19.339844zM21.1875 19.339844"/>
</svg>

<svg xmlns="http://www.w3.org/2000/svg" width="32" height="32" viewBox="0 0 24 24">
    <path d="M2.813 5.684C1.262 5.684 0 4.406 0 2.84 0 1.273 1.262 0 2.813 0c1.55 0 2.816 1.273 2.816 2.84 0 1.566-1.266 2.844-2.816 2.844zm0-4.664c-.993 0-1.801.816-1.801 1.82s.808 1.82 1.8 1.82c.997 0 1.805-.816 1.805-1.82S3.81 1.02 2.813 1.02zm0 0M8.938 5.684c-1.551 0-2.813-1.278-2.813-2.844C6.125 1.273 7.387 0 8.938 0c1.55 0 2.812 1.273 2.812 2.84 0 1.566-1.262 2.844-2.813 2.844zm0-4.664c-.993 0-1.801.816-1.801 1.82s.808 1.82 1.8 1.82c.997 0 1.805-.816 1.805-1.82s-.808-1.82-1.805-1.82zm0 0M15.063 5.684c-1.551 0-2.817-1.278-2.817-2.844C12.25 1.273 13.512 0 15.062 0c1.551 0 2.813 1.273 2.813 2.84 0 1.566-1.262 2.844-2.813 2.844zm0-4.664c-.997 0-1.805.816-1.805 1.82s.808 1.82 1.805 1.82c.992 0 1.8-.816 1.8-1.82s-.808-1.82-1.8-1.82zm0 0M21.188 5.684c-1.555 0-2.817-1.278-2.817-2.844 0-1.567 1.262-2.84 2.817-2.84C22.738 0 24 1.273 24 2.84c0 1.566-1.262 2.844-2.813 2.844zm0-4.664c-.997 0-1.805.816-1.805 1.82s.808 1.82 1.805 1.82c.992 0 1.8-.816 1.8-1.82s-.808-1.82-1.8-1.82zm0 0M12 14.84c-1.55 0-2.813-1.274-2.813-2.84 0-1.566 1.262-2.84 2.813-2.84 1.55 0 2.813 1.274 2.813 2.84 0 1.566-1.262 2.84-2.813 2.84zm0-4.66c-.992 0-1.8.816-1.8 1.82s.808 1.82 1.8 1.82 1.8-.816 1.8-1.82-.808-1.82-1.8-1.82zm0 0M21.188 11.79c-1.555 0-2.817-1.278-2.817-2.845 0-1.566 1.262-2.84 2.817-2.84 1.55 0 2.812 1.274 2.812 2.84 0 1.567-1.262 2.844-2.813 2.844zm0-4.661a1.81 1.81 0 0 0-1.805 1.816c0 1.004.808 1.82 1.805 1.82.992 0 1.8-.816 1.8-1.82a1.81 1.81 0 0 0-1.8-1.816zm0 0M21.188 17.895c-1.555 0-2.817-1.274-2.817-2.84 0-1.567 1.262-2.844 2.817-2.844 1.55 0 2.812 1.277 2.812 2.844 0 1.566-1.262 2.84-2.813 2.84zm0-4.66c-.997 0-1.805.816-1.805 1.82a1.81 1.81 0 0 0 1.805 1.816c.992 0 1.8-.812 1.8-1.816s-.808-1.82-1.8-1.82zm0 0M21.188 24c-1.555 0-2.817-1.273-2.817-2.84 0-1.566 1.262-2.844 2.817-2.844 1.55 0 2.812 1.278 2.812 2.844 0 1.567-1.262 2.84-2.813 2.84zm0-4.66c-.997 0-1.805.816-1.805 1.82s.808 1.82 1.805 1.82c.992 0 1.8-.816 1.8-1.82s-.808-1.82-1.8-1.82zm0 0"/>
</svg>
